icons/flutter/flutter-original.svg

<svg xmlns="http://www.w3.org/2000/svg" viewBox="0 0 128 128"><g fill="#3FB6D3"><path d="M12.3 64.2L76.3 0h39.4L32.1 83.6zM76.3 128h39.4L81.6 93.9l34.1-34.8H76.3L42.2 93.5z"/></g><path fill="#27AACD" d="M81.6 93.9l-20-20-19.4 19.6 19.4 19.6z"/><path fill="#19599A" d="M115.7 128L81.6 93.9l-20 19.2L76.3 128z"/><linearGradient id="flutter-original-a" gradientUnits="userSpaceOnUse" x1="59.365" y1="116.36" x2="86.825" y2="99.399"><stop offset="0" stop-color="#1b4e94"/><stop offset=".63" stop-color="#1a5497"/><stop offset="1" stop-color="#195a9b"/></linearGradient><path fill="url(#flutter-original-a)" d="M61.6 113.1l30.8-8.4-10.8-10.8z"/></svg>

<svg id="flutter-original" xmlns="http://www.w3.org/2000/svg" viewBox="0 0 128 128"><g id="Capa_4"><g><g><path fill="#3FB6D3" d="M 12.3,64.2 76.3,0 115.7,0 32.1,83.6    z"/><path fill="#3FB6D3" d="M 76.3,128 115.7,128 81.6,93.9 115.7,59.1 76.3,59.1 42.2,93.5    z"/></g><path fill="#27AACD" d="M 81.6,93.9 61.6,73.9 42.2,93.5 61.6,113.1   z"/><path fill="#19599A" d="M 115.7,128 81.6,93.9 61.6,113.1 76.3,128   z"/><linearGradient id="SVGID_1_FLUTTER" gradientUnits="userSpaceOnUse" x1="59.3649" y1="116.3598" x2="86.8249" y2="99.3992"><stop offset="0" style="stop-color:#1B4E94"/><stop offset="0.6305" style="stop-color:#1A5497"/><stop offset="1" style="stop-color:#195A9B"/></linearGradient><path fill="url(#SVGID_1_FLUTTER)" d="M 61.6,113.1 92.4,104.7 81.6,93.9   z"/></g></g></svg>
